X:13
T:Boys of the Lough, The
R:Reel
S:Bruce's 250
M:C|
Q:160
K:D
B|:\
"D"AF F/F/F {F}A2AB|defd "G"efdB|"D"AF F/F/F dF F/F/F|"G"(B/c/d) "A"AF EFGB|
"D"AF F/F/F {F}A2AB|defd "G"efdB|"D"AF F/F/F dF F/F/F|"A"EDEF "D"D2::
fg|\
"D"abaf "A"gfec|"D"defd "G"efdB|"D"AF F/F/F dF F/F/F|1
"G"(B/c/d) "A"AF E2fg|"D"abaf "A"gfec|"D"defd "G"efdB|"D"AF F/F/F dF F/F/F|"A"EDEF "D"D2:|2
"G"(B/c/d) "A"AF EFGB|"D"AF F/F/F {F}A2AB|defd "G"efdB|"D"AF F/F/F dF F/F/F|"A"EDEF "D"D2|]
